X:19
T:OLD SPEDLING CASTLE'S/LT. Charles Clapperton's Jig  #4
M:6/8
L:1/8
Q:112
C:J. PORTEUS
R:JIG
K:D
d |: "D" AFD "A"  CB,A, |"G" A,B,D "D" DEF | "Em/G" GFE "D/F#" EFA | "G"B3 "A" Bcd |!
"D" AFD  "A" CB,A, | "G" A,B,D "Bm" DEF | "Em" GAB "D/F#"AFD | "A" E3 "D" D2:|!
f/g/ | "D" afd "D/A" dfd | "D" afd "D/A" def | "Em" {a}gfg "/B" efe | "G" gab "A" efg |!
 "D" afd "D/A" dfd | "D"afd  "/F#"efg | "G" fdf "A" ece | "D" dAF D2 "A/C#" f/g/ |!
"Bm" afd dfd | "Bm/A" afd def | " G" {a}gfg "D/F#" efe | "Em" gab "A" efg |!
 "D" afd "A7/C#" gec | "G/B" dBG "F#m/A" cAF | "Em" GAB "D/F#" AFD | "A"E3 "D" D||
